X:4575
T:Polska
A:Jmtland
C:e. Kristian Oskarsson
M:3/4
O:Sweden
R:Polska
Z:Richard Robinson 
%%TUNEURL: http://www.leeds.ac.uk/music/Info/RRTuneBk/gettune/000008bd.html
%%ID:000008bd
K:D
[A,E]>C (3EFE C>E | D>D (3FGF D>F | \
A>d {Bc}B>A G>F | {EF}E>D C>D (3EDC |1 D>F (3DFD A,2 :|2 D2 D4 :|
A>d d>A F>G | (3ABA (3GAG F>G | A>B B>A F>G | (3ABA GF D2 |
A>d d>A F>G | (3ABA (3GAG FGF | E>F (3GEG (3FDF | (3EDC D4 :|
